X:1
T:Title
%%score 1 { ( 2 4 ) | ( 3 5 ) }
L:1/8
M:3/4
K:D
V:1 treble nm="Choir Aahs"
V:2 treble nm="Grand Piano"
V:4 treble 
V:3 bass 
V:5 bass 
V:1
 z2 z2[Q:1/4=100] [A,A]2 | D2 E2 F2 | G2 F2 E2 | F2 B2 F2 | A4 [A,A]2 | D2 E2 F2 | G2 F2 E2 | %7
 F2 B2 F2 | A4 A2 | d2 c2 B2 | A2 F2 E2 | D2 D2 D2 | D4 D2 | F2 E2 B,2 | F2 E2 B2 | A6 | %16
[M:4/4] z8 | z8 | z8 |[M:3/4] z6 | z6 |] %21
V:2
 z6 | [A,DF]6 | [A,CE]2 [A,DF]2 [A,CG]2 | [A,DF]6 | [CEG]4 z2 | [A,DF]6 | [A,CE]2 [A,DF]2 [A,CG]2 | %7
 [A,DF]6 | G4 A,2 | d2 c2 B2 | A2 F2[K:bass] [A,CE]2 | [F,B,D]2 [D,A,=CD]2 [D,A,CD]2 | %12
 [D,G,D]4[K:treble] [G,B,D]2 | [^G,B,D]6 | [^G,B,D]4 [DE^G]2 | A6 |[M:4/4] z2 d6 | z2 e6 | %18
 cA [Af]2 [Ad]BAe- |[M:3/4] e2 [Fd]4- | [Fd]2 z2 z2 |] %21
V:3
 z2 z2 A,,2 | D,2 E,2 F,2 | G,2 F,2 E,2 | F,2 B,2 F,2 | A,4 A,,2 | D,2 E,2 F,2 | G,2 F,2 E,2 | %7
 F,2 B,2 F,2 | [A,CE]4 z2 | [DFA]2 [A,EG]2 [B,DF]2 | [F,DF]2 [D,A,D]2 A,,2 | B,,2 F,,2 F,,2 | %12
 G,,4 G,,2 | F,2 E,2 B,,2 | F,2 E,2 [B,,E,]2 | E,2 [^D,=C]2 [E,^C]2 | %16
[M:4/4] z4 [D,F,][D,B,] [D,A,]2 | z4[K:treble] [A,C][A,D] [A,E]2 | %18
 [A,EG][A,CG][K:bass] [D,D]2 [F,D][K:treble][G,DG][A,CG][A,CG]- |[M:3/4] [A,CG]2[K:bass] [D,D]4- | %20
 [D,D]2 z2 z2 |] %21
V:4
 x6 | x6 | x6 | x6 | x6 | x6 | x6 | x6 | x6 | x6 | x4[K:bass] x2 | x6 | x4[K:treble] x2 | x6 | x6 | %15
 [CE]2 F2 G2 |[M:4/4] Bc z2 AG F2 | cB z2 A^G =G2 | x8 |[M:3/4] x6 | x6 |] %21
V:5
 x6 | x6 | x6 | x6 | x6 | x6 | x6 | x6 | x6 | x6 | x6 | x6 | x6 | x6 | x6 | A,,6 |[M:4/4] x8 | %17
 x4[K:treble] x4 | x2[K:bass] x3[K:treble] x3 |[M:3/4] x2[K:bass] x4 | x6 |] %21

